X: 1
T: the Black Nag
B: Playford 1657
B: Barlow #116
B: Barnes (dated 1670)
B: Raven p.24
B: Hunt #46 p.15
R: jig
Z: 2020 John Chambers <jc:trillian.mit.edu>
S: https://www.facebook.com/groups/Fiddletuneoftheday/ 2020-10-12
S: https://www.facebook.com/groups/Fiddletuneoftheday/photos/
S: http://www.branchingroot.com/music/blacknag.png
N: "Saturday, March 4, 2006, 18:59:31" in lower-right corner
M: 6/8
L: 1/8
K: Am
E |\
"Am"AGA "Em"BAB | "C"cBc "G"dcd |\
"Am"edc "Em"BAB | "Am"A3 A3 :: A2 |\
"Em"BGE BGE | "G"BcB Bcd |
"Am"Ace Ace | "C"efe edc |\
"Em"BGE B2B | "G"BcB Bcd |\
"Am"edc "Em"BAB | "Am"A3 A2 :|
